; generated by Slic3r 1.3.0 on 2019-12-04 at 13:44:07

; external perimeters extrusion width = 0.55mm (6.64mm^3/s)
; perimeters extrusion width = 0.52mm (12.53mm^3/s)
; infill extrusion width = 0.52mm (16.71mm^3/s)
; solid infill extrusion width = 0.52mm (4.18mm^3/s)
; top infill extrusion width = 0.52mm (3.13mm^3/s)

M107
M104 S205 ; set temperature
G28 X0 Y0 ; home all axes

; Filament gcode

M109 S205 ; set temperature and wait for it to be reached
G21 ; set units to millimeters
G90 ; use absolute coordinates
M82 ; use absolute distances for extrusion
G92 E0
G1 Z2.500 F7800.000
G1 E-4.00000 F2400.00000
G92 E0
G1 X128.800 Y137.397 F7800.000
G1 E4.00000 F2400.00000
G1 F1800
G1 X125.464 Y136.545 E4.09249
G1 X123.373 Y136.248 E4.14920
G1 X121.262 Y136.182 E4.20591
G1 X119.157 Y136.345 E4.26263
G1 X117.082 Y136.737 E4.31934
G1 X115.062 Y137.354 E4.37606
G1 X113.122 Y138.186 E4.43277
G1 X111.284 Y139.225 E4.48948
G1 X109.570 Y140.459 E4.54620
G1 X108.000 Y141.872 E4.60291
G1 X106.594 Y143.447 E4.65963
G1 X105.368 Y145.167 E4.71634
G1 X104.337 Y147.009 E4.77305
G1 X103.513 Y148.954 E4.82977
G1 X102.939 Y150.867 E4.88343
G1 X56.739 Y150.764 E6.12426
G1 X65.113 Y143.856 E6.41582
G1 X70.265 Y138.125 E6.62277
G1 X71.805 Y135.645 E6.70120
G1 X73.009 Y133.063 E6.77769
G1 X73.896 Y130.357 E6.85419
G1 X74.456 Y127.564 E6.93069
G1 X74.679 Y124.725 E7.00718
G1 X74.562 Y121.879 E7.08368
G1 X74.266 Y120.051 E7.13342
G1 X79.002 Y120.583 E7.26140
G1 X87.492 Y120.737 E7.48945
G1 X95.958 Y120.094 E7.71751
G1 X104.189 Y118.686 E7.94179
G1 X108.734 Y117.994 E8.06524
G1 X109.770 Y117.721 E8.09403
G1 X113.341 Y116.698 E8.19380
G1 X114.330 Y116.313 E8.22231
G1 X117.402 Y115.020 E8.31181
G1 X118.333 Y114.529 E8.34009
G1 X121.239 Y112.898 E8.42959
G1 X122.110 Y112.306 E8.45787
G1 X124.814 Y110.358 E8.54737
G1 X125.612 Y109.672 E8.57565
G1 X128.079 Y107.431 E8.66515
G1 X128.795 Y106.659 E8.69343
G1 X130.994 Y104.155 E8.78294
G1 X131.618 Y103.307 E8.81122
G1 X133.525 Y100.564 E8.90095
G1 X135.005 Y97.949 E8.98166
G1 X137.693 Y102.411 E9.12156
G1 X141.251 Y106.751 E9.27229
G1 X145.397 Y110.533 E9.42301
G1 X150.044 Y113.679 E9.57374
G1 X155.096 Y116.122 E9.72446
G1 X160.448 Y117.813 E9.87519
G1 X165.798 Y118.683 E10.02077
G1 X174.042 Y120.094 E10.24540
G1 X182.508 Y120.737 E10.47346
G1 X190.998 Y120.583 E10.70151
G1 X195.734 Y120.051 E10.82949
G1 X195.438 Y121.879 E10.87923
G1 X195.321 Y124.725 E10.95573
G1 X195.544 Y127.564 E11.03222
G1 X196.104 Y130.357 E11.10872
G1 X196.991 Y133.063 E11.18522
G1 X198.195 Y135.645 E11.26171
G1 X199.735 Y138.125 E11.34014
G1 X204.887 Y143.856 E11.54710
G1 X213.261 Y150.764 E11.83865
G1 X167.061 Y150.867 E13.07948
G1 X166.487 Y148.954 E13.13314
G1 X165.663 Y147.009 E13.18986
G1 X164.632 Y145.167 E13.24657
G1 X163.406 Y143.447 E13.30328
G1 X162.000 Y141.872 E13.36000
G1 X160.430 Y140.459 E13.41671
G1 X158.716 Y139.225 E13.47343
G1 X156.878 Y138.186 E13.53014
G1 X154.938 Y137.354 E13.58685
G1 X152.918 Y136.737 E13.64357
G1 X150.843 Y136.345 E13.70028
G1 X148.738 Y136.182 E13.75700
G1 X146.627 Y136.248 E13.81371
G1 X144.536 Y136.545 E13.87042
G1 X141.200 Y137.397 E13.96291
G1 X139.924 Y142.225 E14.09703
G1 X130.076 Y142.225 E14.36150
G1 X128.819 Y137.470 E14.49361
G1 E10.49361 F2400.00000
G92 E0
G1 X135.474 Y93.400 F7800.000
G1 E4.00000 F2400.00000
G1 F1800
G1 X135.190 Y92.840 E4.00002
G1 F1800
G1 X135.099 Y92.730 E4.00010
G1 F1800
G1 X135.007 Y92.620 E4.00025
G1 X134.893 Y92.731 E4.00042
G1 F1800
G1 X134.817 Y92.805 E4.00048
G1 F1800
G1 X134.740 Y92.879 E4.00048
G1 E0.00048 F2400.00000
G92 E0
G1 X55.012 Y148.624 F7800.000
G1 E4.00000 F2400.00000
G1 F1800
G1 X54.472 Y149.006 E4.00007
G1 F1800
G1 X53.932 Y149.388 E4.00053
G1 F1800
G1 X53.392 Y149.769 E4.00137
G1 F1800
G1 X52.853 Y150.151 E4.00260
G1 F1800
G1 X52.313 Y150.532 E4.00422
G1 F1800
G1 X51.773 Y150.914 E4.00622
G1 F1800
G1 X51.466 Y151.102 E4.00745
G1 F1800
G1 X50.991 Y151.387 E4.00968
G1 F1800
G1 X50.516 Y151.673 E4.01222
G1 F1800
G1 X50.040 Y151.959 E4.01510
G1 F1800
G1 X49.565 Y152.244 E4.01829
G1 F1800
G1 X49.089 Y152.530 E4.02181
G1 F1800
G1 X48.614 Y152.815 E4.02566
G1 F1800
G1 X48.138 Y153.101 E4.02982
G1 F1800
G1 X47.900 Y153.244 E4.03207
G1 E0.03207 F2400.00000
G92 E0
G1 X214.718 Y148.434 F7800.000
G1 E4.00000 F2400.00000
G1 F1800
G1 X215.258 Y148.815 E4.00007
G1 F1800
G1 X215.798 Y149.197 E4.00053
G1 F1800
G1 X216.338 Y149.578 E4.00137
G1 F1800
G1 X216.877 Y149.960 E4.00260
G1 F1800
G1 X217.417 Y150.342 E4.00422
G1 F1800
G1 X217.957 Y150.723 E4.00622
G1 F1800
G1 X218.296 Y150.959 E4.00763
G1 F1800
G1 X218.771 Y151.244 E4.00986
G1 F1800
G1 X219.247 Y151.530 E4.01241
G1 F1800
G1 X219.722 Y151.816 E4.01528
G1 F1800
G1 X220.198 Y152.101 E4.01848
G1 F1800
G1 X220.673 Y152.387 E4.02200
G1 F1800
G1 X221.149 Y152.673 E4.02584
G1 F1800
G1 X221.624 Y152.958 E4.03001
G1 F1800
G1 X222.099 Y153.244 E4.03450
G1 E0.03450 F2400.00000
G92 E0
G1 X199.371 Y148.063 F7800.000
G1 E4.00000 F2400.00000
G1 F1800
G1 X202.843 Y144.591 E4.13603
G1 X199.760 Y141.162 E4.26378
G1 X192.845 Y148.078 E4.53473
G1 X186.319 Y148.093 E4.71554
G1 X196.908 Y137.503 E5.13047
G1 X195.998 Y136.037 E5.17828
G1 X194.683 Y133.216 E5.26449
G1 X179.792 Y148.107 E5.84794
G1 X173.266 Y148.122 E6.02875
G1 X193.200 Y128.187 E6.80980
G1 X192.851 Y126.443 E6.85908
G1 X192.605 Y123.314 E6.94606
G1 X191.544 Y123.333 E6.97548
G1 X167.988 Y146.889 E7.89843
G1 X166.672 Y144.510 E7.97375
G1 X165.499 Y142.866 E8.02970
G1 X184.912 Y123.453 E8.79032
G1 X184.116 Y123.467 E8.81238
G1 X178.790 Y123.063 E8.96036
G1 X162.362 Y139.491 E9.60401
G1 X161.500 Y138.714 E9.63617
G1 X159.390 Y137.196 E9.70820
G1 X158.595 Y136.747 E9.73348
G1 X172.940 Y122.401 E10.29555
G1 X167.381 Y121.450 E10.45182
G1 X154.125 Y134.705 E10.97117
G1 X152.251 Y134.133 E11.02548
G1 X149.696 Y133.650 E11.09750
G1 X148.743 Y133.576 E11.12400
G1 X161.785 Y120.534 E11.63500
G1 X161.147 Y120.430 E11.65289
G1 X156.762 Y119.045 E11.78030
G1 X141.904 Y133.903 E12.36245
G1 X135.819 Y135.457 E12.53646
G1 X134.751 Y139.497 E12.65223
G1 X131.777 Y139.497 E12.73461
G1 X131.364 Y137.932 E12.77947
G1 X152.194 Y117.102 E13.59564
G1 X149.546 Y115.821 E13.67714
G1 X148.006 Y114.778 E13.72866
G1 X128.015 Y134.769 E14.51193
G1 X124.596 Y133.896 E14.60969
G1 X122.652 Y133.620 E14.66408
G1 X144.152 Y112.120 E15.50646
G1 X140.747 Y109.014 E15.63416
G1 X115.943 Y133.818 E16.60603
G1 X114.277 Y134.133 E16.65298
G1 X111.791 Y134.891 E16.72501
G1 X109.402 Y135.916 E16.79703
G1 X107.139 Y137.196 E16.86906
G1 X105.029 Y138.714 E16.94108
G1 X103.097 Y140.454 E17.01311
G1 X101.366 Y142.393 E17.08513
G1 X99.857 Y144.510 E17.15716
G1 X98.587 Y146.779 E17.22918
G1 X98.013 Y148.132 E17.26992
G1 X95.123 Y148.126 E17.34998
G1 X137.674 Y105.575 E19.01718
G1 X136.765 Y104.466 E19.05691
G1 X136.210 Y105.220 E19.08284
G1 X133.845 Y107.913 E19.18215
G1 X132.958 Y108.871 E19.21831
G1 X130.304 Y111.280 E19.31763
G1 X129.314 Y112.131 E19.35379
G1 X126.406 Y114.227 E19.45310
G1 X125.327 Y114.961 E19.48926
G1 X122.201 Y116.715 E19.58857
G1 X121.046 Y117.323 E19.62473
G1 X118.228 Y118.510 E19.70944
G1 X88.626 Y148.111 E20.86927
G1 X82.129 Y148.097 E21.04928
G1 X109.271 Y120.956 E22.11270
G1 X106.637 Y121.356 E22.18649
G1 X101.475 Y122.240 E22.33160
G1 X75.632 Y148.082 E23.34414
G1 X69.135 Y148.068 E23.52414
G1 X94.095 Y123.108 E24.50210
G1 X89.356 Y123.467 E24.63378
G1 X87.262 Y123.429 E24.69180
G1 X76.008 Y134.683 E25.13274
G1 X76.485 Y133.231 E25.17509
G1 X77.149 Y129.915 E25.26878
G1 X77.395 Y126.786 E25.35575
G1 X80.866 Y123.314 E25.49179
G1 E21.49179 F2400.00000
G92 E0
; Filament-specific end gcode 
;END gcode for filament

G28 X0 Y0  ; home X axis


M104 S0 ; set temperature
M140 S0 ; set bed temperature
; filament used = 32.1mm (13.3cm3)
; total filament cost = 0.0

; avoid_crossing_perimeters = 0
; bed_shape = 0x0,270x0,270x245,0x245
; bed_temperature = 0
; before_layer_gcode = 
; between_objects_gcode = 
; bridge_acceleration = 0
; bridge_fan_speed = 100
; brim_connections_width = 0
; brim_width = 0
; complete_objects = 0
; cooling = 1
; default_acceleration = 0
; disable_fan_first_layers = 3
; duplicate_distance = 6
; end_filament_gcode = "; Filament-specific end gcode \n;END gcode for filament\n"
; end_gcode = G28 X0 Y0  ; home X axis\n\n
; extruder_clearance_height = 20
; extruder_clearance_radius = 20
; extruder_offset = 0x0
; extrusion_axis = E
; extrusion_multiplier = 1
; fan_always_on = 0
; fan_below_layer_time = 60
; filament_colour = #FFFFFF
; filament_cost = 0
; filament_density = 0
; filament_diameter = 23
; filament_max_volumetric_speed = 0
; filament_notes = ""
; first_layer_acceleration = 0
; first_layer_bed_temperature = 0
; first_layer_extrusion_width = 200%
; first_layer_speed = 30
; first_layer_temperature = 205
; gcode_arcs = 0
; gcode_comments = 0
; gcode_flavor = reprap
; has_heatbed = 1
; infill_acceleration = 0
; infill_first = 0
; interior_brim_width = 0
; layer_gcode = 
; max_fan_speed = 100
; max_layer_height = 0.3
; max_print_speed = 80
; max_volumetric_speed = 0
; min_fan_speed = 35
; min_layer_height = 0.15
; min_print_speed = 10
; min_skirt_length = 0
; notes = 
; nozzle_diameter = 0.5
; only_retract_when_crossing_perimeters = 1
; ooze_prevention = 0
; output_filename_format = [input_filename_base].gcode
; perimeter_acceleration = 0
; post_process = 
; pressure_advance = 0
; printer_notes = 
; resolution = 0
; retract_before_travel = 2
; retract_layer_change = 0
; retract_length = 4
; retract_length_toolchange = 10
; retract_lift = 0
; retract_lift_above = 0
; retract_lift_below = 0
; retract_restart_extra = 0
; retract_restart_extra_toolchange = 0
; retract_speed = 40
; skirt_distance = 6
; skirt_height = 1
; skirts = 0
; slowdown_below_layer_time = 5
; spiral_vase = 0
; standby_temperature_delta = -5
; start_filament_gcode = "; Filament gcode\n"
; start_gcode = G28 X0 Y0 ; home all axes\n
; temperature = 200
; threads = 4
; toolchange_gcode = 
; travel_speed = 130
; use_firmware_retraction = 0
; use_relative_e_distances = 0
; use_set_and_wait_bed = 0
; use_set_and_wait_extruder = 0
; use_volumetric_e = 0
; vibration_limit = 0
; wipe = 0
; z_offset = 0
; z_steps_per_mm = 0
; adaptive_slicing = 0
; adaptive_slicing_quality = 75%
; dont_support_bridges = 1
; extrusion_width = 0
; first_layer_height = 2.5
; infill_only_where_needed = 0
; interface_shells = 0
; layer_height = 2.5
; match_horizontal_surfaces = 0
; raft_layers = 0
; regions_overlap = 0
; seam_position = aligned
; sequential_print_priority = 0
; support_material = 0
; support_material_angle = 0
; support_material_buildplate_only = 0
; support_material_contact_distance = 0.2
; support_material_enforce_layers = 0
; support_material_extruder = 1
; support_material_extrusion_width = 0
; support_material_interface_extruder = 1
; support_material_interface_extrusion_width = 0
; support_material_interface_layers = 3
; support_material_interface_spacing = 0
; support_material_interface_speed = 100%
; support_material_max_layers = 0
; support_material_pattern = pillars
; support_material_spacing = 2.5
; support_material_speed = 60
; support_material_threshold = 60%
; xy_size_compensation = 0
; bottom_infill_pattern = rectilinear
; bottom_solid_layers = 3
; bridge_flow_ratio = 1
; bridge_speed = 60
; external_perimeter_extrusion_width = 0
; external_perimeter_speed = 50%
; external_perimeters_first = 0
; extra_perimeters = 1
; fill_angle = 45
; fill_density = 50%
; fill_gaps = 1
; fill_pattern = stars
; gap_fill_speed = 20
; infill_every_layers = 1
; infill_extruder = 1
; infill_extrusion_width = 0
; infill_overlap = 55%
; infill_speed = 80
; overhangs = 1
; perimeter_extruder = 1
; perimeter_extrusion_width = 0
; perimeter_speed = 60
; perimeters = 1
; small_perimeter_speed = 15
; solid_infill_below_area = 70
; solid_infill_every_layers = 1
; solid_infill_extruder = 1
; solid_infill_extrusion_width = 0
; solid_infill_speed = 20
; thin_walls = 1
; top_infill_extrusion_width = 0
; top_infill_pattern = rectilinear
; top_solid_infill_speed = 15
; top_solid_layers = 3
