; generated by Slic3r 1.3.0 on 2019-12-03 at 21:02:50

; external perimeters extrusion width = 0.55mm (6.64mm^3/s)
; perimeters extrusion width = 0.52mm (12.53mm^3/s)
; infill extrusion width = 0.52mm (16.71mm^3/s)
; solid infill extrusion width = 0.52mm (4.18mm^3/s)
; top infill extrusion width = 0.52mm (3.13mm^3/s)

M107
M104 S205 ; set temperature
G28 X0 Y0 ; home all axes

; Filament gcode

M109 S205 ; set temperature and wait for it to be reached
G21 ; set units to millimeters
G90 ; use absolute coordinates
M82 ; use absolute distances for extrusion
G92 E0
G1 Z2.500 F7800.000
G1 E-2.00000 F2400.00000
G92 E0
G1 X122.450 Y135.050 F7800.000
G1 E2.00000 F2400.00000
G1 F1800
G1 X118.931 Y134.982 E2.09454
G1 X117.866 Y134.920 E2.12318
G1 X116.805 Y134.816 E2.15182
G1 X115.748 Y134.672 E2.18047
G1 X114.701 Y134.487 E2.20902
G1 X113.576 Y134.241 E2.23996
G1 X112.623 Y133.995 E2.26640
G1 X111.601 Y133.689 E2.29504
G1 X110.592 Y133.344 E2.32368
G1 X109.597 Y132.960 E2.35233
G1 X108.618 Y132.537 E2.38097
G1 X107.655 Y132.077 E2.40962
G1 X106.712 Y131.580 E2.43826
G1 X105.788 Y131.047 E2.46690
G1 X104.886 Y130.478 E2.49555
G1 X104.006 Y129.875 E2.52419
G1 X103.151 Y129.238 E2.55284
G1 X102.032 Y128.317 E2.59177
G1 X102.013 Y128.335 E2.59248
G1 X100.742 Y127.136 E2.63944
G1 X99.995 Y126.374 E2.66808
G1 X99.278 Y125.584 E2.69673
G1 X98.593 Y124.767 E2.72537
G1 X97.939 Y123.924 E2.75402
G1 X97.319 Y123.057 E2.78266
G1 X96.733 Y122.166 E2.81130
G1 X96.182 Y121.253 E2.83995
G1 X95.667 Y120.319 E2.86859
G1 X95.189 Y119.369 E2.89715
G1 X94.716 Y118.319 E2.92809
G1 X94.343 Y117.408 E2.95452
G1 X93.979 Y116.405 E2.98317
G1 X93.653 Y115.390 E3.01181
G1 X93.367 Y114.362 E3.04045
G1 X93.121 Y113.325 E3.06910
G1 X92.915 Y112.278 E3.09774
G1 X92.751 Y111.224 E3.12638
G1 X92.627 Y110.165 E3.15503
G1 X92.544 Y109.102 E3.18367
G1 X92.503 Y108.036 E3.21232
G1 X92.503 Y106.970 E3.24096
G1 X92.544 Y105.904 E3.26960
G1 X92.627 Y104.841 E3.29825
G1 X92.750 Y103.785 E3.32680
G1 X92.931 Y102.647 E3.35774
G1 X93.121 Y101.681 E3.38418
G1 X93.367 Y100.643 E3.41282
G1 X93.653 Y99.616 E3.44147
G1 X93.979 Y98.600 E3.47011
G1 X94.343 Y97.598 E3.49875
G1 X94.747 Y96.611 E3.52740
G1 X95.188 Y95.640 E3.55604
G1 X95.667 Y94.687 E3.58469
G1 X96.182 Y93.753 E3.61333
G1 X96.733 Y92.840 E3.64197
G1 X97.319 Y91.949 E3.67062
G1 X97.939 Y91.081 E3.69926
G1 X98.590 Y90.241 E3.72782
G1 X99.333 Y89.360 E3.75876
G1 X99.995 Y88.631 E3.78519
G1 X100.742 Y87.870 E3.81384
G1 X101.517 Y87.138 E3.84248
G1 X102.321 Y86.437 E3.87112
G1 X103.151 Y85.767 E3.89977
G1 X104.006 Y85.131 E3.92841
G1 X104.886 Y84.527 E3.95706
G1 X105.788 Y83.959 E3.98570
G1 X106.712 Y83.425 E4.01434
G1 X107.655 Y82.928 E4.04299
G1 X108.618 Y82.468 E4.07163
G1 X109.597 Y82.046 E4.10028
G1 X110.592 Y81.662 E4.12892
G1 X111.601 Y81.316 E4.15756
G1 X112.623 Y81.011 E4.18621
G1 X113.655 Y80.745 E4.21485
G1 X114.698 Y80.519 E4.24349
G1 X115.748 Y80.334 E4.27214
G1 X116.805 Y80.189 E4.30078
G1 X117.866 Y80.086 E4.32943
G1 X118.931 Y80.024 E4.35807
G1 X120.021 Y80.003 E4.38737
G1 X177.497 Y80.003 E5.93103
G1 X177.497 Y137.479 E7.47470
G1 X177.476 Y138.569 E7.50400
G1 X177.414 Y139.631 E7.53255
G1 X177.300 Y140.777 E7.56349
G1 X177.166 Y141.752 E7.58993
G1 X176.981 Y142.802 E7.61857
G1 X176.755 Y143.845 E7.64722
G1 X176.489 Y144.877 E7.67586
G1 X176.184 Y145.899 E7.70450
G1 X175.838 Y146.908 E7.73315
G1 X175.455 Y147.900 E7.76170
G1 X174.996 Y148.957 E7.79264
G1 X174.572 Y149.845 E7.81908
G1 X174.075 Y150.788 E7.84772
G1 X173.541 Y151.712 E7.87637
G1 X172.973 Y152.614 E7.90501
G1 X172.369 Y153.494 E7.93365
G1 X171.733 Y154.349 E7.96230
G1 X171.063 Y155.179 E7.99094
G1 X170.362 Y155.983 E8.01959
G1 X169.630 Y156.758 E8.04823
G1 X168.869 Y157.505 E8.07687
G1 X168.079 Y158.222 E8.10552
G1 X167.262 Y158.907 E8.13416
G1 X166.419 Y159.561 E8.16281
G1 X165.551 Y160.181 E8.19145
G1 X164.660 Y160.767 E8.22009
G1 X163.747 Y161.318 E8.24874
G1 X162.813 Y161.833 E8.27738
G1 X161.863 Y162.311 E8.30594
G1 X160.813 Y162.784 E8.33688
G1 X159.902 Y163.157 E8.36331
G1 X158.900 Y163.521 E8.39196
G1 X157.884 Y163.847 E8.42060
G1 X156.860 Y164.132 E8.44915
G1 X155.738 Y164.395 E8.48009
G1 X154.772 Y164.585 E8.50653
G1 X153.719 Y164.749 E8.53517
G1 X152.659 Y164.873 E8.56382
G1 X151.596 Y164.956 E8.59246
G1 X150.530 Y164.997 E8.62111
G1 X149.464 Y164.997 E8.64975
G1 X148.398 Y164.956 E8.67839
G1 X147.335 Y164.873 E8.70704
G1 X146.276 Y164.749 E8.73568
G1 X145.222 Y164.585 E8.76433
G1 X144.175 Y164.379 E8.79297
G1 X143.138 Y164.133 E8.82161
G1 X142.110 Y163.847 E8.85026
G1 X141.095 Y163.521 E8.87890
G1 X140.092 Y163.157 E8.90754
G1 X139.105 Y162.753 E8.93619
G1 X138.134 Y162.312 E8.96483
G1 X137.181 Y161.833 E8.99348
G1 X136.247 Y161.318 E9.02212
G1 X135.334 Y160.767 E9.05076
G1 X134.443 Y160.181 E9.07941
G1 X133.576 Y159.561 E9.10805
G1 X132.733 Y158.907 E9.13670
G1 X131.916 Y158.222 E9.16534
G1 X131.126 Y157.505 E9.19398
G1 X130.364 Y156.758 E9.22263
G1 X129.633 Y155.983 E9.25127
G1 X128.931 Y155.179 E9.27992
G1 X128.262 Y154.349 E9.30856
G1 X127.625 Y153.494 E9.33720
G1 X127.022 Y152.614 E9.36585
G1 X126.453 Y151.712 E9.39449
G1 X125.920 Y150.788 E9.42314
G1 X125.423 Y149.845 E9.45178
G1 X124.963 Y148.882 E9.48042
G1 X124.540 Y147.903 E9.50907
G1 X124.156 Y146.908 E9.53771
G1 X123.811 Y145.899 E9.56636
G1 X123.505 Y144.877 E9.59500
G1 X123.239 Y143.845 E9.62364
G1 X123.013 Y142.802 E9.65229
G1 X122.828 Y141.752 E9.68093
G1 X122.684 Y140.695 E9.70957
G1 X122.580 Y139.634 E9.73822
G1 X122.518 Y138.569 E9.76686
G1 X122.452 Y135.125 E9.85938
G1 E7.85938 F2400.00000
G92 E0
G1 X164.699 Y155.376 F7800.000
G1 E2.00000 F2400.00000
G1 F1800
G1 X168.181 Y151.894 E2.13799
G1 X168.792 Y151.247 E2.16293
G1 X169.379 Y150.574 E2.18797
G1 X169.940 Y149.878 E2.21300
G1 X170.458 Y149.182 E2.23732
G1 X171.455 Y147.669 E2.28810
G1 X171.902 Y146.896 E2.31314
G1 X172.318 Y146.105 E2.33818
G1 X172.671 Y145.368 E2.36108
G1 X173.061 Y144.470 E2.38851
G1 X173.379 Y143.645 E2.41329
G1 X173.668 Y142.800 E2.43833
G1 X173.925 Y141.944 E2.46336
G1 X174.147 Y141.079 E2.48840
G1 X174.337 Y140.206 E2.51344
G1 X174.544 Y138.944 E2.54927
G1 X151.435 Y162.053 E3.46518
G1 X150.491 Y162.166 E3.49181
G1 X149.601 Y162.235 E3.51685
G1 X148.708 Y162.270 E3.54188
G1 X147.815 Y162.270 E3.56692
G1 X146.922 Y162.235 E3.59196
G1 X146.031 Y162.166 E3.61699
G1 X144.881 Y162.021 E3.64950
G1 X174.770 Y132.132 E4.83413
G1 X174.770 Y125.545 E5.01873
G1 X139.696 Y160.618 E6.40885
G1 X139.138 Y160.390 E6.42576
G1 X138.324 Y160.020 E6.45080
G1 X137.526 Y159.619 E6.47584
G1 X136.744 Y159.188 E6.50087
G1 X135.979 Y158.726 E6.52591
G1 X135.389 Y158.338 E6.54569
G1 X174.770 Y118.958 E8.10650
G1 X174.770 Y112.371 E8.29110
G1 X131.795 Y155.346 E9.99438
G1 X131.203 Y154.719 E10.01856
G1 X130.615 Y154.045 E10.04360
G1 X130.054 Y153.350 E10.06864
G1 X129.521 Y152.634 E10.09367
G1 X128.877 Y151.677 E10.12599
G1 X174.770 Y105.784 E11.94491
G1 X174.770 Y99.198 E12.12951
G1 X126.681 Y147.286 E14.03549
G1 X126.326 Y146.272 E14.06561
G1 X126.070 Y145.416 E14.09065
G1 X125.847 Y144.551 E14.11568
G1 X125.658 Y143.678 E14.14072
G1 X125.503 Y142.798 E14.16576
G1 X125.392 Y141.988 E14.18867
G1 X174.770 Y92.611 E16.14571
G1 X174.770 Y86.024 E16.33031
G1 X125.156 Y135.637 E18.29671
G1 X125.094 Y132.406 E18.38727
G1 X121.863 Y132.344 E18.47783
G1 X171.476 Y82.730 E20.44423
G1 X164.889 Y82.730 E20.62883
G1 X115.512 Y132.108 E22.58587
G1 X114.702 Y131.997 E22.60878
G1 X113.831 Y131.844 E22.63356
G1 X112.875 Y131.634 E22.66099
G1 X112.084 Y131.430 E22.68389
G1 X111.228 Y131.174 E22.70893
G1 X110.214 Y130.819 E22.73905
G1 X158.302 Y82.730 E24.64503
G1 X151.716 Y82.730 E24.82963
G1 X105.823 Y128.623 E26.64855
G1 X104.867 Y127.979 E26.68087
G1 X104.168 Y127.459 E26.70526
G1 X102.946 Y126.452 E26.74964
G1 X102.154 Y125.705 E26.78016
G1 X145.129 Y82.730 E28.48344
G1 X138.542 Y82.730 E28.66804
G1 X99.162 Y122.111 E30.22886
G1 X98.774 Y121.521 E30.24863
G1 X98.312 Y120.756 E30.27367
G1 X97.881 Y119.974 E30.29871
G1 X97.484 Y119.184 E30.32349
G1 X96.882 Y117.804 E30.36569
G1 X131.955 Y82.730 E31.75580
G1 X125.368 Y82.730 E31.94040
G1 X95.479 Y112.619 E33.12504
G1 X95.334 Y111.469 E33.15754
G1 X95.265 Y110.578 E33.18258
G1 X95.230 Y109.685 E33.20762
G1 X95.230 Y108.792 E33.23265
G1 X95.265 Y107.899 E33.25769
G1 X95.334 Y107.009 E33.28273
G1 X95.447 Y106.064 E33.30938
G1 X118.556 Y82.956 E34.22526
G1 X117.294 Y83.164 E34.26109
G1 X116.421 Y83.353 E34.28613
G1 X115.556 Y83.575 E34.31117
G1 X114.700 Y83.832 E34.33621
G1 X113.855 Y84.121 E34.36124
G1 X113.021 Y84.443 E34.38628
G1 X112.201 Y84.797 E34.41132
G1 X111.395 Y85.182 E34.43636
G1 X110.604 Y85.598 E34.46139
G1 X109.831 Y86.045 E34.48643
G1 X109.075 Y86.521 E34.51147
G1 X108.338 Y87.027 E34.53650
G1 X107.622 Y87.560 E34.56154
G1 X106.926 Y88.121 E34.58658
G1 X106.253 Y88.708 E34.61162
G1 X105.606 Y89.319 E34.63654
G1 X102.123 Y92.802 E34.77459
G1 X102.135 Y92.790 E34.77504
G1 E32.77504 F2400.00000
G28 E0
; Filament-specific end gcode 
;END gcode for filament

G28; home X axis


M104 S0 ; set temperature
M140 S0 ; set bed temperature
; filament used = 40.6mm (16.9cm3)
; total filament cost = 0.0

; avoid_crossing_perimeters = 0
; bed_shape = 0x0,270x0,270x245,0x245
; bed_temperature = 0
; before_layer_gcode = 
; between_objects_gcode = 
; bridge_acceleration = 0
; bridge_fan_speed = 100
; brim_connections_width = 0
; brim_width = 0
; complete_objects = 0
; cooling = 1
; default_acceleration = 0
; disable_fan_first_layers = 3
; duplicate_distance = 6
; end_filament_gcode = "; Filament-specific end gcode \n;END gcode for filament\n"
; end_gcode = G28 X0 Y0  ; home X axis\n\n
; extruder_clearance_height = 20
; extruder_clearance_radius = 20
; extruder_offset = 0x0
; extrusion_axis = E
; extrusion_multiplier = 1
; fan_always_on = 0
; fan_below_layer_time = 60
; filament_colour = #FFFFFF
; filament_cost = 0
; filament_density = 0
; filament_diameter = 23
; filament_max_volumetric_speed = 0
; filament_notes = ""
; first_layer_acceleration = 0
; first_layer_bed_temperature = 0
; first_layer_extrusion_width = 200%
; first_layer_speed = 30
; first_layer_temperature = 205
; gcode_arcs = 0
; gcode_comments = 0
; gcode_flavor = reprap
; has_heatbed = 1
; infill_acceleration = 0
; infill_first = 0
; interior_brim_width = 0
; layer_gcode = 
; max_fan_speed = 100
; max_layer_height = 0.3
; max_print_speed = 80
; max_volumetric_speed = 0
; min_fan_speed = 35
; min_layer_height = 0.15
; min_print_speed = 10
; min_skirt_length = 0
; notes = 
; nozzle_diameter = 0.5
; only_retract_when_crossing_perimeters = 1
; ooze_prevention = 0
; output_filename_format = [input_filename_base].gcode
; perimeter_acceleration = 0
; post_process = 
; pressure_advance = 0
; printer_notes = 
; resolution = 0
; retract_before_travel = 2
; retract_layer_change = 0
; retract_length = 2
; retract_length_toolchange = 10
; retract_lift = 0
; retract_lift_above = 0
; retract_lift_below = 0
; retract_restart_extra = 0
; retract_restart_extra_toolchange = 0
; retract_speed = 40
; skirt_distance = 6
; skirt_height = 1
; skirts = 0
; slowdown_below_layer_time = 5
; spiral_vase = 0
; standby_temperature_delta = -5
; start_filament_gcode = "; Filament gcode\n"
; start_gcode = G28 X0 Y0 ; home all axes\n
; temperature = 200
; threads = 4
; toolchange_gcode = 
; travel_speed = 130
; use_firmware_retraction = 0
; use_relative_e_distances = 0
; use_set_and_wait_bed = 0
; use_set_and_wait_extruder = 0
; use_volumetric_e = 0
; vibration_limit = 0
; wipe = 0
; z_offset = 0
; z_steps_per_mm = 0
; adaptive_slicing = 0
; adaptive_slicing_quality = 75%
; dont_support_bridges = 1
; extrusion_width = 0
; first_layer_height = 2.5
; infill_only_where_needed = 0
; interface_shells = 0
; layer_height = 2.5
; match_horizontal_surfaces = 0
; raft_layers = 0
; regions_overlap = 0
; seam_position = aligned
; sequential_print_priority = 0
; support_material = 0
; support_material_angle = 0
; support_material_buildplate_only = 0
; support_material_contact_distance = 0.2
; support_material_enforce_layers = 0
; support_material_extruder = 1
; support_material_extrusion_width = 0
; support_material_interface_extruder = 1
; support_material_interface_extrusion_width = 0
; support_material_interface_layers = 3
; support_material_interface_spacing = 0
; support_material_interface_speed = 100%
; support_material_max_layers = 0
; support_material_pattern = pillars
; support_material_spacing = 2.5
; support_material_speed = 60
; support_material_threshold = 60%
; xy_size_compensation = 0
; bottom_infill_pattern = rectilinear
; bottom_solid_layers = 3
; bridge_flow_ratio = 1
; bridge_speed = 60
; external_perimeter_extrusion_width = 0
; external_perimeter_speed = 50%
; external_perimeters_first = 0
; extra_perimeters = 1
; fill_angle = 45
; fill_density = 50%
; fill_gaps = 1
; fill_pattern = stars
; gap_fill_speed = 20
; infill_every_layers = 1
; infill_extruder = 1
; infill_extrusion_width = 0
; infill_overlap = 55%
; infill_speed = 80
; overhangs = 1
; perimeter_extruder = 1
; perimeter_extrusion_width = 0
; perimeter_speed = 60
; perimeters = 1
; small_perimeter_speed = 15
; solid_infill_below_area = 70
; solid_infill_every_layers = 1
; solid_infill_extruder = 1
; solid_infill_extrusion_width = 0
; solid_infill_speed = 20
; thin_walls = 1
; top_infill_extrusion_width = 0
; top_infill_pattern = rectilinear
; top_solid_infill_speed = 15
; top_solid_layers = 3
