; generated by Slic3r 1.3.0 on 2019-12-03 at 19:47:57

; external perimeters extrusion width = 0.55mm (6.64mm^3/s)
; perimeters extrusion width = 0.52mm (12.53mm^3/s)
; infill extrusion width = 0.52mm (16.71mm^3/s)
; solid infill extrusion width = 0.52mm (4.18mm^3/s)
; top infill extrusion width = 0.52mm (3.13mm^3/s)

M107
M104 S205 ; set temperature
G28 X0 Y0; home all axes

; Filament gcode

M109 S205 ; set temperature and wait for it to be reached
G21 ; set units to millimeters
G90 ; use absolute coordinates
M82 ; use absolute distances for extrusion
G92 E0
G1 Z2.500 F7800.000
G1 E-2.00000 F2400.00000
G92 E0
G1 X115.705 Y126.298 F7800.000
G1 E2.00000 F2400.00000
G1 F1800
G1 X111.299 Y128.629 E2.13387
G1 X110.892 Y128.707 E2.14501
G1 X109.731 Y128.691 E2.17620
G1 X108.249 Y128.388 E2.21682
G1 X106.495 Y127.704 E2.26738
G1 X104.569 Y126.582 E2.32726
G1 X102.588 Y125.017 E2.39508
G1 X100.671 Y123.040 E2.46902
G1 X98.924 Y120.720 E2.54702
G1 X97.437 Y118.146 E2.62685
G1 X96.275 Y115.427 E2.70626
G1 X95.482 Y112.683 E2.78299
G1 X95.071 Y110.039 E2.85486
G1 X95.024 Y107.618 E2.91989
G1 X95.291 Y105.531 E2.97639
G1 X95.786 Y103.859 E3.02323
G1 X96.403 Y102.629 E3.06017
G1 X97.043 Y101.803 E3.08826
G1 X97.663 Y101.277 E3.11009
G1 X98.308 Y100.937 E3.12967
G1 X99.094 Y100.722 E3.15155
G1 X100.141 Y100.660 E3.17973
G1 X101.508 Y100.846 E3.21679
G1 X103.172 Y101.383 E3.26375
G1 X105.049 Y102.342 E3.32036
G1 X107.025 Y103.747 E3.38547
G1 X108.978 Y105.580 E3.45742
G1 X110.798 Y107.785 E3.53419
G1 X112.388 Y110.278 E3.61362
G1 X113.675 Y112.957 E3.69345
G1 X114.606 Y115.707 E3.77141
G1 X115.156 Y118.402 E3.84529
G1 X115.700 Y126.223 E4.05585
G1 E2.05585 F2400.00000
G92 E0
G1 X120.360 Y128.885 F7800.000
G1 E2.00000 F2400.00000
G1 F1800
G1 X112.798 Y132.886 E2.22977
G1 X111.288 Y133.176 E2.27106
G1 X109.249 Y133.148 E2.32582
G1 X106.981 Y132.685 E2.38799
G1 X104.549 Y131.735 E2.45810
G1 X102.050 Y130.281 E2.53579
G1 X99.589 Y128.336 E2.62003
G1 X97.272 Y125.948 E2.70938
G1 X95.195 Y123.188 E2.80215
G1 X93.438 Y120.147 E2.89648
G1 X92.063 Y116.930 E2.99045
G1 X91.115 Y113.650 E3.08214
G1 X90.614 Y110.426 E3.16976
G1 X90.555 Y107.377 E3.25169
G1 X90.909 Y104.609 E3.32662
G1 X91.618 Y102.212 E3.39375
G1 X92.607 Y100.240 E3.45301
G1 X93.800 Y98.700 E3.50534
G1 X95.150 Y97.556 E3.55284
G1 X96.657 Y96.762 E3.59860
G1 X98.364 Y96.294 E3.64614
G1 X100.312 Y96.179 E3.69854
G1 X102.502 Y96.476 E3.75790
G1 X104.884 Y97.245 E3.82512
G1 X107.371 Y98.516 E3.90014
G1 X109.859 Y100.286 E3.98214
G1 X112.239 Y102.520 E4.06982
G1 X114.414 Y105.154 E4.16155
G1 X116.296 Y108.104 E4.25553
G1 X117.816 Y111.270 E4.34985
G1 X118.923 Y114.540 E4.44259
G1 X119.588 Y117.798 E4.53190
G1 X120.355 Y128.811 E4.82839
G1 E2.82839 F2400.00000
G92 E0
G1 X176.929 Y117.184 F7800.000
G1 E2.00000 F2400.00000
G1 F1800
G1 X173.895 Y103.894 E2.36611
G1 X178.331 Y101.548 E2.50088
G1 X179.445 Y108.087 E2.67905
G1 X179.344 Y115.786 E2.88583
G1 X179.147 Y117.100 E2.92152
G1 X177.004 Y117.181 E2.97912
G1 E0.97912 F2400.00000
G92 E0
G1 X170.161 Y107.593 F7800.000
G1 E2.00000 F2400.00000
G1 F1800
G1 X114.296 Y137.143 E3.69739
G1 X111.683 Y137.646 E3.76884
G1 X108.768 Y137.606 E3.84715
G1 X105.714 Y136.982 E3.93087
G1 X102.604 Y135.767 E4.02055
G1 X99.531 Y133.979 E4.11604
G1 X96.590 Y131.655 E4.21670
G1 X93.874 Y128.855 E4.32147
G1 X91.466 Y125.656 E4.42901
G1 X89.439 Y122.148 E4.53783
G1 X87.852 Y118.432 E4.64635
G1 X86.748 Y114.617 E4.75302
G1 X86.157 Y110.814 E4.85639
G1 X86.086 Y107.135 E4.95521
G1 X86.527 Y103.687 E5.04857
G1 X87.451 Y100.566 E5.13599
G1 X88.812 Y97.851 E5.21757
G1 X90.558 Y95.596 E5.29414
G1 X92.637 Y93.836 E5.36731
G1 X95.007 Y92.586 E5.43926
G1 X97.635 Y91.865 E5.51245
G1 X100.483 Y91.697 E5.58908
G1 X103.495 Y92.107 E5.67073
G1 X106.595 Y93.107 E5.75822
G1 X109.693 Y94.690 E5.85164
G1 X112.693 Y96.824 E5.95053
G1 X115.501 Y99.459 E6.05394
G1 X118.030 Y102.523 E6.16064
G1 X120.203 Y105.930 E6.26917
G1 X121.957 Y109.582 E6.37799
G1 X123.240 Y113.374 E6.48550
G1 X124.020 Y117.194 E6.59023
G1 X124.560 Y124.941 E6.79879
G1 X181.695 Y94.719 E8.53477
G1 X183.914 Y107.739 E8.88950
G1 X183.803 Y116.148 E9.11537
G1 X182.546 Y124.522 E9.34280
G1 X180.166 Y132.649 E9.57023
G1 X176.708 Y140.378 E9.79765
G1 X175.710 Y141.982 E9.84838
G1 X173.693 Y141.288 E9.90567
G1 X174.022 Y138.186 E9.98946
G1 X173.981 Y128.905 E10.23873
G1 X172.921 Y119.684 E10.48800
G1 X170.178 Y107.666 E10.81910
G1 X169.974 Y107.129 F7800.000
G1 E8.81910 F2400.00000
G92 E0
G1 X173.978 Y144.030 F7800.000
G1 E2.00000 F2400.00000
G1 F1800
G1 X172.686 Y147.478 E2.08617
G1 F1800
G1 X170.846 Y152.005 E2.19766
G1 F1800
G1 X169.926 Y154.268 E2.25225
G1 E0.25225 F2400.00000
G92 E0
G1 X177.866 Y132.325 F7800.000
G1 E2.00000 F2400.00000
G1 F1800
G1 X177.891 Y130.886 E2.03721
G1 F1800
G1 X177.941 Y128.008 E2.11319
G1 F1800
G1 X177.991 Y125.130 E2.19074
G1 F1800
G1 X178.040 Y122.251 E2.26986
G1 F1800
G1 X178.090 Y119.373 E2.35055
G1 E0.35055 F2400.00000
G92 E0
G1 X171.514 Y103.491 F7800.000
G1 E2.00000 F2400.00000
G1 F1800
G1 X122.629 Y129.348 E2.32837
G1 E0.32837 F2400.00000
G92 E0
G1 X109.315 Y125.447 F7800.000
G1 E2.00000 F2400.00000
G1 F1800
G1 X112.787 Y121.974 E2.15394
G1 X112.459 Y117.270 E2.30178
G1 X112.063 Y115.330 E2.36387
G1 X103.912 Y123.482 E2.72529
G1 X102.333 Y121.869 E2.79603
G1 X100.918 Y119.988 E2.86983
G1 X100.595 Y119.430 E2.89005
G1 X109.863 Y110.162 E3.30097
G1 X108.918 Y108.680 E3.35608
G1 X107.452 Y106.905 E3.42823
G1 X106.575 Y106.082 E3.46596
G1 X98.358 Y114.299 E3.83028
G1 X98.113 Y113.452 E3.85792
G1 X97.792 Y111.387 E3.92343
G1 X97.757 Y109.596 E3.97961
G1 X97.937 Y108.190 E4.02405
G1 X98.218 Y107.241 E4.05505
G1 X98.389 Y106.899 E4.06707
G1 X101.862 Y103.427 E4.22101
G1 E2.22101 F2400.00000
G1 E0
; Filament-specific end gcode 
;END gcode for filament
G28 E0
G28; home X axis


M104 S0 ; set temperature
M140 S0 ; set bed temperature
; filament used = 17.8mm (7.4cm3)
; total filament cost = 0.0

; avoid_crossing_perimeters = 0
; bed_shape = 0x0,270x0,270x245,0x245
; bed_temperature = 0
; before_layer_gcode = 
; between_objects_gcode = 
; bridge_acceleration = 0
; bridge_fan_speed = 100
; brim_connections_width = 0
; brim_width = 0
; complete_objects = 0
; cooling = 1
; default_acceleration = 0
; disable_fan_first_layers = 3
; duplicate_distance = 6
; end_filament_gcode = "; Filament-specific end gcode \n;END gcode for filament\n"
; end_gcode = G28 X0 Y0  ; home X axis\n\n
; extruder_clearance_height = 20
; extruder_clearance_radius = 20
; extruder_offset = 0x0
; extrusion_axis = E
; extrusion_multiplier = 1
; fan_always_on = 0
; fan_below_layer_time = 60
; filament_colour = #FFFFFF
; filament_cost = 0
; filament_density = 0
; filament_diameter = 23
; filament_max_volumetric_speed = 0
; filament_notes = ""
; first_layer_acceleration = 0
; first_layer_bed_temperature = 0
; first_layer_extrusion_width = 200%
; first_layer_speed = 30
; first_layer_temperature = 205
; gcode_arcs = 0
; gcode_comments = 0
; gcode_flavor = reprap
; has_heatbed = 1
; infill_acceleration = 0
; infill_first = 0
; interior_brim_width = 0
; layer_gcode = 
; max_fan_speed = 100
; max_layer_height = 0.3
; max_print_speed = 80
; max_volumetric_speed = 0
; min_fan_speed = 35
; min_layer_height = 0.15
; min_print_speed = 10
; min_skirt_length = 0
; notes = 
; nozzle_diameter = 0.5
; only_retract_when_crossing_perimeters = 1
; ooze_prevention = 0
; output_filename_format = [input_filename_base].gcode
; perimeter_acceleration = 0
; post_process = 
; pressure_advance = 0
; printer_notes = 
; resolution = 0
; retract_before_travel = 2
; retract_layer_change = 0
; retract_length = 2
; retract_length_toolchange = 10
; retract_lift = 0
; retract_lift_above = 0
; retract_lift_below = 0
; retract_restart_extra = 0
; retract_restart_extra_toolchange = 0
; retract_speed = 40
; skirt_distance = 6
; skirt_height = 1
; skirts = 0
; slowdown_below_layer_time = 5
; spiral_vase = 0
; standby_temperature_delta = -5
; start_filament_gcode = "; Filament gcode\n"
; start_gcode = G28 ; home all axes\n
; temperature = 200
; threads = 4
; toolchange_gcode = 
; travel_speed = 130
; use_firmware_retraction = 0
; use_relative_e_distances = 0
; use_set_and_wait_bed = 0
; use_set_and_wait_extruder = 0
; use_volumetric_e = 0
; vibration_limit = 0
; wipe = 0
; z_offset = 0
; z_steps_per_mm = 0
; adaptive_slicing = 0
; adaptive_slicing_quality = 75%
; dont_support_bridges = 1
; extrusion_width = 0
; first_layer_height = 2.5
; infill_only_where_needed = 0
; interface_shells = 0
; layer_height = 2.5
; match_horizontal_surfaces = 0
; raft_layers = 0
; regions_overlap = 0
; seam_position = aligned
; sequential_print_priority = 0
; support_material = 0
; support_material_angle = 0
; support_material_buildplate_only = 0
; support_material_contact_distance = 0.2
; support_material_enforce_layers = 0
; support_material_extruder = 1
; support_material_extrusion_width = 0
; support_material_interface_extruder = 1
; support_material_interface_extrusion_width = 0
; support_material_interface_layers = 3
; support_material_interface_spacing = 0
; support_material_interface_speed = 100%
; support_material_max_layers = 0
; support_material_pattern = pillars
; support_material_spacing = 2.5
; support_material_speed = 60
; support_material_threshold = 60%
; xy_size_compensation = 0
; bottom_infill_pattern = rectilinear
; bottom_solid_layers = 3
; bridge_flow_ratio = 1
; bridge_speed = 60
; external_perimeter_extrusion_width = 0
; external_perimeter_speed = 50%
; external_perimeters_first = 0
; extra_perimeters = 1
; fill_angle = 45
; fill_density = 50%
; fill_gaps = 1
; fill_pattern = stars
; gap_fill_speed = 20
; infill_every_layers = 1
; infill_extruder = 1
; infill_extrusion_width = 0
; infill_overlap = 55%
; infill_speed = 80
; overhangs = 1
; perimeter_extruder = 1
; perimeter_extrusion_width = 0
; perimeter_speed = 60
; perimeters = 3
; small_perimeter_speed = 15
; solid_infill_below_area = 70
; solid_infill_every_layers = 1
; solid_infill_extruder = 1
; solid_infill_extrusion_width = 0
; solid_infill_speed = 20
; thin_walls = 1
; top_infill_extrusion_width = 0
; top_infill_pattern = rectilinear
; top_solid_infill_speed = 15
; top_solid_layers = 3
