; generated by Slic3r 1.3.0 on 2019-12-04 at 13:40:45

; external perimeters extrusion width = 0.55mm (6.64mm^3/s)
; perimeters extrusion width = 0.52mm (12.53mm^3/s)
; infill extrusion width = 0.52mm (16.71mm^3/s)
; solid infill extrusion width = 0.52mm (4.18mm^3/s)
; top infill extrusion width = 0.52mm (3.13mm^3/s)

M107
M104 S205 ; set temperature
G28 X0 Y0 ; home all axes

; Filament gcode

M109 S205 ; set temperature and wait for it to be reached
G21 ; set units to millimeters
G90 ; use absolute coordinates
M82 ; use absolute distances for extrusion
G92 E0
G1 Z2.500 F7800.000
G1 E-4.00000 F2400.00000
G92 E0
G1 X104.920 Y127.769 F7800.000
G1 E4.00000 F2400.00000
G1 F1800
G1 X107.263 Y126.177 E4.07608
G1 X107.680 Y125.995 E4.08831
G1 X107.992 Y125.924 E4.09690
G1 X108.124 Y125.893 E4.10053
G1 X108.579 Y125.876 E4.11276
G1 X109.029 Y125.942 E4.12499
G1 X109.826 Y126.217 E4.14763
G1 X111.646 Y126.602 E4.19759
G1 X113.192 Y127.054 E4.24084
G1 X114.377 Y127.500 E4.27484
G1 X114.669 Y127.750 E4.28518
G1 X115.531 Y128.220 E4.31153
G1 X116.575 Y128.523 E4.34075
G1 X117.706 Y128.582 E4.37116
G1 X118.677 Y128.386 E4.39777
G1 X119.595 Y127.949 E4.42508
G1 X120.382 Y127.287 E4.45270
G1 X120.959 Y126.474 E4.47946
G1 X121.343 Y125.478 E4.50813
G1 X121.453 Y124.464 E4.53553
G1 X121.302 Y123.446 E4.56315
G1 X121.097 Y122.963 E4.57727
G1 X120.989 Y122.552 E4.58868
G1 X120.979 Y122.226 E4.59743
G1 X121.060 Y121.813 E4.60874
G1 X121.706 Y120.003 E4.66036
G1 X122.522 Y118.159 E4.71451
G1 X123.471 Y116.380 E4.76866
G1 X124.532 Y114.703 E4.82195
G1 X125.380 Y113.619 E4.85892
G1 X126.236 Y112.212 E4.90315
G1 X126.922 Y110.715 E4.94739
G1 X127.218 Y109.802 E4.97314
G1 X127.430 Y109.148 E4.99162
G1 X127.751 Y107.532 E5.03586
G1 X127.882 Y105.891 E5.08009
G1 X127.822 Y104.304 E5.12273
G1 X127.539 Y101.662 E5.19410
G1 X127.045 Y99.038 E5.26581
G1 X126.400 Y96.669 E5.33177
G1 X126.265 Y95.903 E5.35265
G1 X126.256 Y95.212 E5.37120
G1 X126.349 Y94.589 E5.38812
G1 X126.573 Y93.860 E5.40860
G1 X126.880 Y93.255 E5.42681
G1 X127.287 Y92.698 E5.44536
G1 X127.778 Y92.212 E5.46390
G1 X128.312 Y91.832 E5.48150
G1 X129.455 Y91.309 E5.51527
G1 X130.737 Y90.895 E5.55146
G1 X132.060 Y90.635 E5.58765
G1 X133.403 Y90.532 E5.62385
G1 X135.000 Y90.598 E5.66677
G1 X136.597 Y90.532 E5.70969
G1 X137.940 Y90.635 E5.74588
G1 X139.263 Y90.895 E5.78207
G1 X140.545 Y91.309 E5.81826
G1 X141.688 Y91.832 E5.85204
G1 X142.222 Y92.212 E5.86963
G1 X142.713 Y92.698 E5.88818
G1 X143.120 Y93.255 E5.90673
G1 X143.433 Y93.871 E5.92527
G1 X143.642 Y94.529 E5.94382
G1 X143.744 Y95.212 E5.96237
G1 X143.735 Y95.903 E5.98091
G1 X143.600 Y96.669 E6.00179
G1 X142.955 Y99.038 E6.06776
G1 X142.461 Y101.662 E6.13946
G1 X142.178 Y104.304 E6.21083
G1 X142.118 Y105.891 E6.25347
G1 X142.249 Y107.532 E6.29771
G1 X142.570 Y109.148 E6.34194
G1 X142.824 Y109.931 E6.36406
G1 X143.078 Y110.715 E6.38617
G1 X143.764 Y112.212 E6.43041
G1 X144.620 Y113.619 E6.47464
G1 X145.468 Y114.703 E6.51161
G1 X146.529 Y116.380 E6.56490
G1 X147.478 Y118.159 E6.61906
G1 X148.294 Y120.003 E6.67321
G1 X148.940 Y121.813 E6.72482
G1 X149.021 Y122.226 E6.73613
G1 X149.011 Y122.552 E6.74488
G1 X148.905 Y122.955 E6.75609
G1 X148.713 Y123.400 E6.76911
G1 X148.549 Y124.404 E6.79642
G1 X148.641 Y125.387 E6.82294
G1 X149.001 Y126.404 E6.85191
G1 X149.577 Y127.243 E6.87924
G1 X150.354 Y127.916 E6.90686
G1 X151.276 Y128.372 E6.93448
G1 X152.302 Y128.586 E6.96262
G1 X153.463 Y128.510 E6.99387
G1 X154.407 Y128.245 E7.02022
G1 X155.367 Y127.733 E7.04943
G1 X155.638 Y127.494 E7.05913
G1 X156.808 Y127.054 E7.09270
G1 X158.354 Y126.602 E7.13595
G1 X160.174 Y126.217 E7.18591
G1 X160.971 Y125.942 E7.20856
G1 X161.421 Y125.876 E7.22079
G1 X161.876 Y125.893 E7.23301
G1 X162.320 Y125.995 E7.24524
G1 X162.737 Y126.177 E7.25746
G1 X165.069 Y127.761 E7.33318
G1 X161.679 Y128.934 E7.42954
G1 X160.978 Y129.366 E7.45165
G1 X160.291 Y130.039 E7.47748
G1 X159.690 Y131.002 E7.50797
G1 X159.511 Y132.093 E7.53766
G1 X159.556 Y132.928 E7.56013
G1 X159.846 Y133.885 E7.58698
G1 X160.263 Y134.604 E7.60930
G1 X161.355 Y135.782 E7.65245
G1 X160.435 Y137.473 E7.70415
G1 X158.483 Y137.129 E7.75739
G1 X156.419 Y136.957 E7.81301
G1 X154.077 Y136.963 E7.87591
G1 X151.871 Y137.183 E7.93546
G1 X149.707 Y137.600 E7.99464
G1 X145.626 Y138.757 E8.10856
G1 X143.610 Y139.151 E8.16374
G1 X141.563 Y139.386 E8.21908
G1 X139.504 Y139.460 E8.27442
G1 X137.445 Y139.372 E8.32976
G1 X135.000 Y139.074 E8.39592
G1 X132.555 Y139.372 E8.46207
G1 X130.496 Y139.460 E8.51741
G1 X128.437 Y139.386 E8.57275
G1 X126.390 Y139.151 E8.62809
G1 X124.374 Y138.757 E8.68327
G1 X120.293 Y137.600 E8.79720
G1 X118.129 Y137.183 E8.85637
G1 X115.930 Y136.964 E8.91573
G1 X113.720 Y136.946 E8.97509
G1 X111.517 Y137.129 E9.03445
G1 X109.547 Y137.476 E9.08817
G1 X108.630 Y135.774 E9.14010
G1 X109.743 Y134.593 E9.18368
G1 X110.160 Y133.874 E9.20600
G1 X110.434 Y132.999 E9.23065
G1 X110.492 Y132.058 E9.25596
G1 X110.288 Y130.940 E9.28647
G1 X109.721 Y130.061 E9.31459
G1 X109.099 Y129.425 E9.33847
G1 X108.309 Y128.922 E9.36362
G1 X104.991 Y127.793 E9.45776
G1 E5.45776 F2400.00000
G92 E0
G1 X163.373 Y137.305 F7800.000
G1 E4.00000 F2400.00000
G1 F1800
G1 X165.745 Y138.445 E4.09394
G1 F1800
G1 X168.251 Y139.651 E4.19163
G1 X169.322 Y140.221 E4.23423
G1 F1800
G1 X171.076 Y141.164 E4.30320
G1 F1800
G1 X173.194 Y142.409 E4.38714
G1 F1800
G1 X174.793 Y143.389 E4.45046
G1 X175.780 Y144.041 E4.49041
G1 F1800
G1 X176.884 Y144.772 E4.53454
G1 X178.661 Y146.034 E4.60716
G1 F1800
G1 X180.778 Y147.592 E4.69363
G1 F1800
G1 X181.463 Y148.128 E4.72198
G1 F1800
G1 X181.983 Y148.508 E4.74270
G1 F1800
G1 X182.504 Y148.888 E4.76308
G1 F1800
G1 X183.002 Y149.231 E4.78200
G1 F1800
G1 X183.647 Y149.659 E4.80590
G1 F1800
G1 X184.228 Y150.027 E4.82675
G1 F1800
G1 X184.661 Y150.299 E4.84193
G1 F1800
G1 X185.341 Y150.702 E4.86518
G1 F1800
G1 X185.877 Y150.996 E4.88289
G1 F1800
G1 X186.377 Y151.270 E4.89908
G1 F1800
G1 X186.749 Y151.471 E4.91087
G1 F1800
G1 X187.408 Y151.806 E4.93130
G1 F1800
G1 X187.897 Y152.035 E4.94595
G1 F1800
G1 X188.386 Y152.263 E4.96034
G1 F1800
G1 X188.757 Y152.434 E4.97104
G1 F1800
G1 X189.553 Y152.778 E4.99339
G1 F1800
G1 X190.024 Y152.963 E5.00620
G1 F1800
G1 X190.496 Y153.149 E5.01876
G1 F1800
G1 X190.968 Y153.334 E5.03106
G1 F1800
G1 X191.774 Y153.585 E5.05122
G1 X192.730 Y153.821 E5.07475
G1 F1800
G1 X193.841 Y154.092 E5.10159
G1 X195.125 Y154.324 E5.13221
G1 F1800
G1 X196.331 Y154.531 E5.16041
G1 X197.549 Y154.658 E5.18860
G1 F1800
G1 X198.765 Y154.782 E5.21617
G1 X199.951 Y154.821 E5.24296
G1 F1800
G1 X201.136 Y154.859 E5.26924
G1 X202.239 Y154.820 E5.29371
G1 F1800
G1 X203.302 Y154.775 E5.31693
G1 E1.31693 F2400.00000
G92 E0
G1 X106.618 Y137.310 F7800.000
G1 E4.00000 F2400.00000
G1 F1800
G1 X101.882 Y139.585 E4.18748
G1 F1800
G1 X99.801 Y140.692 E4.27033
G1 F1800
G1 X98.796 Y141.234 E4.30987
G1 X97.573 Y141.951 E4.35897
G1 F1800
G1 X96.039 Y142.867 E4.42000
G1 F1800
G1 X95.207 Y143.389 E4.45313
G1 X93.233 Y144.693 E4.53297
G1 F1800
G1 X92.167 Y145.431 E4.57610
G1 X90.510 Y146.636 E4.64424
G1 F1800
G1 X88.880 Y147.860 E4.71133
G1 F1800
G1 X88.277 Y148.318 E4.73600
G1 F1800
G1 X87.756 Y148.698 E4.75671
G1 F1800
G1 X87.353 Y148.989 E4.77244
G1 F1800
G1 X86.643 Y149.474 E4.79934
G1 F1800
G1 X86.062 Y149.843 E4.82059
G1 F1800
G1 X85.481 Y150.212 E4.84144
G1 F1800
G1 X84.999 Y150.501 E4.85813
G1 F1800
G1 X84.406 Y150.841 E4.87827
G1 F1800
G1 X83.898 Y151.119 E4.89502
G1 F1800
G1 X83.391 Y151.397 E4.91148
G1 F1800
G1 X82.922 Y151.639 E4.92621
G1 F1800
G1 X82.452 Y151.872 E4.94069
G1 X82.452 Y151.872 F7800.000
G1 F1800
G1 X81.965 Y152.099 E4.95535
G1 F1800
G1 X81.478 Y152.326 E4.96973
G1 F1800
G1 X81.100 Y152.501 E4.98068
G1 F1800
G1 X80.448 Y152.781 E4.99905
G1 F1800
G1 X79.879 Y153.003 E5.01465
G1 F1800
G1 X79.309 Y153.226 E5.02988
G1 F1800
G1 X78.614 Y153.475 E5.04781
G1 F1800
G1 X76.315 Y154.057 E5.10449
G1 F1800
G1 X75.927 Y154.141 E5.11377
G1 X73.824 Y154.507 E5.16379
G1 F1800
G1 X71.309 Y154.776 E5.22199
G1 F1800
G1 X68.864 Y154.859 E5.27726
G1 F1800
G1 X66.708 Y154.783 E5.32511
G1 E1.32511 F2400.00000
G92 E0
G1 X129.013 Y97.361 F7800.000
G1 E4.00000 F2400.00000
G1 F1800
G1 X132.485 Y93.889 E4.13299
G1 X132.811 Y93.740 E4.14270
G1 X133.592 Y93.488 E4.16495
G1 X134.398 Y93.330 E4.18720
G1 X135.218 Y93.267 E4.20945
G1 X136.736 Y93.330 E4.25061
G1 X138.254 Y93.267 E4.29177
G1 X139.073 Y93.330 E4.31402
G1 X139.355 Y93.385 E4.32179
G1 X130.186 Y102.554 E4.67300
G1 X130.222 Y102.746 E4.67829
G1 X130.541 Y105.719 E4.75927
G1 X130.616 Y107.721 E4.81353
G1 X130.549 Y108.557 E4.83625
G1 X139.771 Y99.334 E5.18949
G1 X139.459 Y102.247 E5.26882
G1 X139.384 Y104.249 E5.32309
G1 X139.520 Y105.952 E5.36936
G1 X126.434 Y119.038 E5.87061
G1 X125.595 Y120.363 E5.91310
G1 X124.801 Y121.851 E5.95878
G1 X124.119 Y123.393 E6.00446
G1 X123.903 Y123.998 E6.02184
G1 X124.216 Y126.112 E6.07972
G1 X124.033 Y127.805 E6.12584
G1 X140.832 Y111.005 E6.76935
G1 X141.551 Y112.573 E6.81608
G1 X142.679 Y114.426 E6.87482
G1 X143.161 Y115.043 E6.89601
G1 X122.413 Y135.790 E7.69073
G1 X123.676 Y136.148 E7.72629
G1 X125.338 Y136.473 E7.77214
G1 X127.036 Y136.668 E7.81845
G1 X127.871 Y136.698 E7.84109
G1 X145.503 Y119.066 E8.51645
G1 X145.881 Y119.922 E8.54179
G1 X146.107 Y120.556 E8.56002
G1 X145.788 Y122.513 E8.61374
G1 X145.984 Y124.618 E8.67099
G1 X146.071 Y124.864 E8.67806
G1 X134.474 Y136.461 E9.12228
G1 X136.075 Y136.656 E9.16597
G1 X137.783 Y136.729 E9.21228
G1 X139.492 Y136.668 E9.25859
G1 X140.781 Y136.520 E9.29374
G1 X148.407 Y128.894 E9.58583
G1 X149.599 Y129.927 E9.62855
G1 X151.544 Y130.890 E9.68735
G1 X152.564 Y131.102 E9.71557
G1 X149.092 Y134.574 E9.84856
G1 E5.84856 F2400.00000
G92 E0
; Filament-specific end gcode 
;END gcode for filament

G28 X0 Y0  ; home X axis


M104 S0 ; set temperature
M140 S0 ; set bed temperature
; filament used = 13.9mm (5.8cm3)
; total filament cost = 0.0

; avoid_crossing_perimeters = 0
; bed_shape = 0x0,270x0,270x245,0x245
; bed_temperature = 0
; before_layer_gcode = 
; between_objects_gcode = 
; bridge_acceleration = 0
; bridge_fan_speed = 100
; brim_connections_width = 0
; brim_width = 0
; complete_objects = 0
; cooling = 1
; default_acceleration = 0
; disable_fan_first_layers = 3
; duplicate_distance = 6
; end_filament_gcode = "; Filament-specific end gcode \n;END gcode for filament\n"
; end_gcode = G28 X0 Y0  ; home X axis\n\n
; extruder_clearance_height = 20
; extruder_clearance_radius = 20
; extruder_offset = 0x0
; extrusion_axis = E
; extrusion_multiplier = 1
; fan_always_on = 0
; fan_below_layer_time = 60
; filament_colour = #FFFFFF
; filament_cost = 0
; filament_density = 0
; filament_diameter = 23
; filament_max_volumetric_speed = 0
; filament_notes = ""
; first_layer_acceleration = 0
; first_layer_bed_temperature = 0
; first_layer_extrusion_width = 200%
; first_layer_speed = 30
; first_layer_temperature = 205
; gcode_arcs = 0
; gcode_comments = 0
; gcode_flavor = reprap
; has_heatbed = 1
; infill_acceleration = 0
; infill_first = 0
; interior_brim_width = 0
; layer_gcode = 
; max_fan_speed = 100
; max_layer_height = 0.3
; max_print_speed = 80
; max_volumetric_speed = 0
; min_fan_speed = 35
; min_layer_height = 0.15
; min_print_speed = 10
; min_skirt_length = 0
; notes = 
; nozzle_diameter = 0.5
; only_retract_when_crossing_perimeters = 1
; ooze_prevention = 0
; output_filename_format = [input_filename_base].gcode
; perimeter_acceleration = 0
; post_process = 
; pressure_advance = 0
; printer_notes = 
; resolution = 0
; retract_before_travel = 2
; retract_layer_change = 0
; retract_length = 4
; retract_length_toolchange = 10
; retract_lift = 0
; retract_lift_above = 0
; retract_lift_below = 0
; retract_restart_extra = 0
; retract_restart_extra_toolchange = 0
; retract_speed = 40
; skirt_distance = 6
; skirt_height = 1
; skirts = 0
; slowdown_below_layer_time = 5
; spiral_vase = 0
; standby_temperature_delta = -5
; start_filament_gcode = "; Filament gcode\n"
; start_gcode = G28 X0 Y0 ; home all axes\n
; temperature = 200
; threads = 4
; toolchange_gcode = 
; travel_speed = 130
; use_firmware_retraction = 0
; use_relative_e_distances = 0
; use_set_and_wait_bed = 0
; use_set_and_wait_extruder = 0
; use_volumetric_e = 0
; vibration_limit = 0
; wipe = 0
; z_offset = 0
; z_steps_per_mm = 0
; adaptive_slicing = 0
; adaptive_slicing_quality = 75%
; dont_support_bridges = 1
; extrusion_width = 0
; first_layer_height = 2.5
; infill_only_where_needed = 0
; interface_shells = 0
; layer_height = 2.5
; match_horizontal_surfaces = 0
; raft_layers = 0
; regions_overlap = 0
; seam_position = aligned
; sequential_print_priority = 0
; support_material = 0
; support_material_angle = 0
; support_material_buildplate_only = 0
; support_material_contact_distance = 0.2
; support_material_enforce_layers = 0
; support_material_extruder = 1
; support_material_extrusion_width = 0
; support_material_interface_extruder = 1
; support_material_interface_extrusion_width = 0
; support_material_interface_layers = 3
; support_material_interface_spacing = 0
; support_material_interface_speed = 100%
; support_material_max_layers = 0
; support_material_pattern = pillars
; support_material_spacing = 2.5
; support_material_speed = 60
; support_material_threshold = 60%
; xy_size_compensation = 0
; bottom_infill_pattern = rectilinear
; bottom_solid_layers = 3
; bridge_flow_ratio = 1
; bridge_speed = 60
; external_perimeter_extrusion_width = 0
; external_perimeter_speed = 50%
; external_perimeters_first = 0
; extra_perimeters = 1
; fill_angle = 45
; fill_density = 50%
; fill_gaps = 1
; fill_pattern = stars
; gap_fill_speed = 20
; infill_every_layers = 1
; infill_extruder = 1
; infill_extrusion_width = 0
; infill_overlap = 55%
; infill_speed = 80
; overhangs = 1
; perimeter_extruder = 1
; perimeter_extrusion_width = 0
; perimeter_speed = 60
; perimeters = 1
; small_perimeter_speed = 15
; solid_infill_below_area = 70
; solid_infill_every_layers = 1
; solid_infill_extruder = 1
; solid_infill_extrusion_width = 0
; solid_infill_speed = 20
; thin_walls = 1
; top_infill_extrusion_width = 0
; top_infill_pattern = rectilinear
; top_solid_infill_speed = 15
; top_solid_layers = 3
